img/instagram-icon.svg

<svg width="38" height="38" viewBox="0 0 38 38" fill="none" xmlns="http://www.w3.org/2000/svg">
<mask id="mask0" mask-type="alpha" maskUnits="userSpaceOnUse" x="0" y="0" width="38" height="38">
<circle cx="19" cy="19" r="19" fill="#C4C4C4"/>
</mask>
<g mask="url(#mask0)">
<path d="M37.3494 6.79681C37.0036 3.55612 34.4442 0.996155 31.2032 0.650574C23.0757 -0.216858 14.9243 -0.216858 6.7971 0.650574C3.55612 0.996445 0.996445 3.55612 0.650574 6.79681C-0.216858 14.9241 -0.216858 23.0757 0.650574 31.2029C0.996445 34.4439 3.55612 37.0036 6.79681 37.3494C14.9241 38.2169 23.0757 38.2169 31.2032 37.3494C34.4442 37.0036 37.0036 34.4439 37.3494 31.2029C38.2169 23.0757 38.2169 14.9243 37.3494 6.79681Z" fill="url(#paint0_radial)"/>
<path d="M35.2827 8.17143C34.976 5.29574 32.7048 3.02424 29.8288 2.71722C22.6168 1.94778 15.3834 1.94778 8.17143 2.71722C5.29574 3.02424 3.02424 5.29574 2.71722 8.17143C1.94778 15.3834 1.94778 22.6168 2.71722 29.8285C3.02424 32.7045 5.29574 34.976 8.17143 35.2827C15.3834 36.0525 22.6168 36.0525 29.8285 35.2827C32.7045 34.976 34.976 32.7045 35.2827 29.8285C36.0525 22.6168 36.0525 15.3834 35.2827 8.17143Z" fill="url(#paint1_linear)"/>
<path d="M0.569336 30.4155C0.595429 30.6782 0.622391 30.9409 0.650513 31.2035C0.996384 34.4442 3.55606 37.0039 6.79704 37.3498C14.9243 38.2172 23.0759 38.2172 31.2031 37.3498C34.4441 37.0039 37.0035 34.4442 37.3494 31.2035C37.3775 30.9409 37.4044 30.6782 37.4308 30.4155H0.569336Z" fill="url(#paint2_linear)"/>
<path d="M37.3493 31.2028C37.8155 26.8358 38.0307 22.4618 37.9959 18.0884L29.31 9.40249C28.2248 8.16367 26.6398 7.39047 24.7774 7.32349C20.9473 7.18549 17.105 7.19245 13.2744 7.32407C10.0928 7.43366 7.86798 9.57209 7.29742 12.7151C7.19682 13.27 7.13652 13.8321 7.05737 14.3911V23.6052C7.10115 23.9038 7.16551 24.201 7.18552 24.5014C7.31308 26.4131 8.09875 28.0505 9.3567 29.1583L18.1957 37.997C22.5334 38.0274 26.8715 37.8117 31.2031 37.3493C34.4441 37.0035 37.0035 34.4438 37.3493 31.2028Z" fill="url(#paint3_linear)"/>
<path d="M37.3494 31.203C37.0038 34.4434 34.4435 37.0037 31.2031 37.3492C26.8721 37.8114 22.5332 38.0274 18.196 37.9969L9.37036 29.1713C10.3935 30.0668 11.7271 30.6122 13.2747 30.6704C17.1045 30.8142 20.9476 30.8105 24.7774 30.6725C28.2413 30.5472 30.748 27.9835 30.8561 24.5195C30.9715 20.8417 30.9715 17.1542 30.8561 13.4763C30.8068 11.8783 30.2458 10.4722 29.3158 9.4082L37.9962 18.0886C38.0304 22.4614 37.8153 26.836 37.3494 31.203Z" fill="url(#paint4_linear)"/>
<path d="M23.4839 14.8853C22.3712 13.6737 20.7747 12.9136 19.0001 12.9136C15.6388 12.9136 12.9136 15.6388 12.9136 19.0001C12.9136 20.7747 13.6737 22.3712 14.8853 23.4839L28.9674 37.5661C29.7128 37.5011 30.4582 37.429 31.203 37.3495C34.444 37.0036 37.0036 34.444 37.3495 31.203C37.429 30.4582 37.5011 29.7128 37.5661 28.9674L23.4839 14.8853Z" fill="url(#paint5_linear)"/>
<path d="M37.9264 23.0934L26.593 11.7603C26.3286 11.4133 25.912 11.188 25.442 11.188C24.6424 11.188 23.9939 11.8362 23.9939 12.6361C23.9939 13.1061 24.2192 13.5227 24.5662 13.7871L37.7238 26.945C37.8131 25.6615 37.8806 24.3775 37.9264 23.0934Z" fill="url(#paint6_linear)"/>
<path d="M7.05737 14.3911C7.13652 13.8321 7.19682 13.27 7.29742 12.7151C7.86769 9.57209 10.0928 7.43366 13.2744 7.32407C17.105 7.19245 20.9473 7.18549 24.7774 7.32349C28.2402 7.44816 30.7479 10.0122 30.8561 13.4761C30.9712 17.1543 30.9712 20.8415 30.8561 24.5196C30.7479 27.9836 28.241 30.5473 24.7777 30.6722C20.9476 30.8105 17.1044 30.814 13.2746 30.6702C9.81129 30.54 7.41716 27.9702 7.18552 24.5011C7.16551 24.201 7.10115 23.9036 7.05737 23.6049C7.05737 20.5336 7.05737 17.4622 7.05737 14.3911ZM19.0031 28.6193C20.756 28.6193 22.5105 28.6718 24.261 28.6072C27.0057 28.5054 28.6939 26.8674 28.7579 24.1253C28.8374 20.7087 28.8374 17.2874 28.7579 13.8704C28.6939 11.1289 27.0045 9.45264 24.261 9.39437C20.7789 9.32073 17.2929 9.32131 13.8107 9.39437C11.0881 9.45149 9.39497 11.0939 9.32104 13.8052C9.22711 17.265 9.22711 20.731 9.32104 24.1909C9.39497 26.9019 11.0881 28.5063 13.811 28.6072C15.5395 28.6715 17.2723 28.6193 19.0031 28.6193Z" fill="url(#paint7_linear)"/>
<path d="M7.05737 14.3911C7.13652 13.8321 7.19682 13.27 7.29742 12.7151C7.86769 9.57209 10.0928 7.43366 13.2744 7.32407C17.105 7.19245 20.9473 7.18549 24.7774 7.32349C28.2402 7.44816 30.7479 10.0122 30.8561 13.4761C30.9712 17.1543 30.9712 20.8415 30.8561 24.5196C30.7479 27.9836 28.241 30.5473 24.7777 30.6722C20.9476 30.8105 17.1044 30.814 13.2746 30.6702C9.81129 30.54 7.41716 27.9702 7.18552 24.5011C7.16551 24.201 7.10115 23.9036 7.05737 23.6049C7.05737 20.5336 7.05737 17.4622 7.05737 14.3911ZM19.0031 28.6193C20.756 28.6193 22.5105 28.6718 24.261 28.6072C27.0057 28.5054 28.6939 26.8674 28.7579 24.1253C28.8374 20.7087 28.8374 17.2874 28.7579 13.8704C28.6939 11.1289 27.0045 9.45264 24.261 9.39437C20.7789 9.32073 17.2929 9.32131 13.8107 9.39437C11.0881 9.45149 9.39497 11.0939 9.32104 13.8052C9.22711 17.265 9.22711 20.731 9.32104 24.1909C9.39497 26.9019 11.0881 28.5063 13.811 28.6072C15.5395 28.6715 17.2723 28.6193 19.0031 28.6193Z" fill="white"/>
<path d="M19.0001 12.9136C15.6388 12.9136 12.9136 15.6385 12.9136 18.9998C12.9136 22.3614 15.6388 25.0863 19.0001 25.0863C22.3617 25.0863 25.0866 22.3614 25.0866 18.9998C25.0866 15.6385 22.3617 12.9136 19.0001 12.9136ZM19.0001 22.9908C16.7959 22.9908 15.0091 21.204 15.0091 18.9998C15.0091 16.7956 16.7959 15.0088 19.0001 15.0088C21.2043 15.0088 22.9911 16.7956 22.9911 18.9998C22.9911 21.204 21.2043 22.9908 19.0001 22.9908Z" fill="white"/>
<path d="M26.8899 12.6361C26.8899 13.4357 26.2416 14.084 25.442 14.084C24.6424 14.084 23.9939 13.4357 23.9939 12.6361C23.9939 11.8362 24.6424 11.188 25.442 11.188C26.2416 11.188 26.8899 11.8362 26.8899 12.6361Z" fill="white"/>
</g>
<defs>
<radialGradient id="paint0_radial" cx="0" cy="0" r="1" gradientUnits="userSpaceOnUse" gradientTransform="translate(7.78979 33.209) scale(41.9073)">
<stop stop-color="#FAE100"/>
<stop offset="0.0544" stop-color="#FADC04"/>
<stop offset="0.1167" stop-color="#FBCE0E"/>
<stop offset="0.1829" stop-color="#FCB720"/>
<stop offset="0.2514" stop-color="#FE9838"/>
<stop offset="0.3054" stop-color="#FF7950"/>
<stop offset="0.4922" stop-color="#FF1C74"/>
<stop offset="1" stop-color="#6C1CD1"/>
</radialGradient>
<linearGradient id="paint1_linear" x1="14.5746" y1="16.5108" x2="-49.8019" y2="-19.701" gradientUnits="userSpaceOnUse">
<stop stop-color="#A1B5D8" stop-opacity="0"/>
<stop offset="0.3094" stop-color="#90A2BD" stop-opacity="0.309804"/>
<stop offset="0.7554" stop-color="#7C8B9C" stop-opacity="0.756863"/>
<stop offset="1" stop-color="#748290"/>
</linearGradient>
<linearGradient id="paint2_linear" x1="19" y1="33.5447" x2="19" y2="39.4679" gradientUnits="userSpaceOnUse">
<stop stop-color="#FAE100" stop-opacity="0"/>
<stop offset="0.3068" stop-color="#FCA800" stop-opacity="0.305882"/>
<stop offset="0.6275" stop-color="#FE7300" stop-opacity="0.627451"/>
<stop offset="0.8685" stop-color="#FF5200" stop-opacity="0.866667"/>
<stop offset="1" stop-color="#FF4500"/>
</linearGradient>
<linearGradient id="paint3_linear" x1="16.8381" y1="16.7843" x2="7.43372" y2="7.37993" gradientUnits="userSpaceOnUse">
<stop stop-color="#833AB4" stop-opacity="0"/>
<stop offset="1" stop-color="#833AB4"/>
</linearGradient>
<linearGradient id="paint4_linear" x1="26.0433" y1="34.7555" x2="21.3494" y2="12.6272" gradientUnits="userSpaceOnUse">
<stop stop-color="#833AB4" stop-opacity="0"/>
<stop offset="1" stop-color="#833AB4"/>
</linearGradient>
<linearGradient id="paint5_linear" x1="27.8295" y1="27.8295" x2="8.97619" y2="8.97617" gradientUnits="userSpaceOnUse">
<stop stop-color="#833AB4" stop-opacity="0"/>
<stop offset="1" stop-color="#833AB4"/>
</linearGradient>
<linearGradient id="paint6_linear" x1="29.2279" y1="16.422" x2="22.9935" y2="10.1875" gradientUnits="userSpaceOnUse">
<stop stop-color="#833AB4" stop-opacity="0"/>
<stop offset="1" stop-color="#833AB4"/>
</linearGradient>
<linearGradient id="paint7_linear" x1="26.5449" y1="11.5075" x2="11.173" y2="26.8793" gradientUnits="userSpaceOnUse">
<stop stop-color="#833AB4"/>
<stop offset="0.0922" stop-color="#9C3495"/>
<stop offset="0.2927" stop-color="#DC2546"/>
<stop offset="0.392" stop-color="#FD1D1D"/>
<stop offset="0.5589" stop-color="#FC6831"/>
<stop offset="0.6887" stop-color="#FC9B40"/>
<stop offset="0.7521" stop-color="#FCAF45"/>
<stop offset="0.7806" stop-color="#FDB750"/>
<stop offset="0.8656" stop-color="#FECB6A"/>
<stop offset="0.9415" stop-color="#FFD87A"/>
<stop offset="1" stop-color="#FFDC80"/>
</linearGradient>
</defs>
</svg>

<svg width="38" height="38" fill="none" xmlns="http://www.w3.org/2000/svg"><mask id="mask0" maskUnits="userSpaceOnUse" x="0" y="0" width="38" height="38"><circle cx="19" cy="19" r="19" fill="#C4C4C4"/></mask><g mask="url(#mask0)"><path d="M37.35 6.797A6.919 6.919 0 0031.202.65a114.774 114.774 0 00-24.406 0A6.92 6.92 0 00.651 6.797a114.774 114.774 0 000 24.406 6.92 6.92 0 006.146 6.146c8.127.868 16.279.868 24.406 0a6.919 6.919 0 006.146-6.146c.868-8.127.868-16.279 0-24.406z" fill="url(#paint0_radial)"/><path d="M35.283 8.171a6.14 6.14 0 00-5.454-5.454c-7.212-.77-14.446-.77-21.658 0a6.14 6.14 0 00-5.454 5.454 101.81 101.81 0 000 21.657 6.14 6.14 0 005.454 5.455c7.212.77 14.446.77 21.657 0a6.14 6.14 0 005.455-5.455c.77-7.211.77-14.445 0-21.657z" fill="url(#paint1_linear)"/><path d="M.57 30.416c.025.262.052.525.08.787a6.92 6.92 0 006.147 6.147 114.83 114.83 0 0024.406 0 6.92 6.92 0 006.146-6.147c.029-.262.055-.525.082-.787H.569z" fill="url(#paint2_linear)"/><path d="M37.35 31.203c.465-4.367.68-8.741.646-13.115L29.31 9.402c-1.085-1.238-2.67-2.012-4.533-2.079-3.83-.138-7.672-.13-11.503.001-3.181.11-5.406 2.248-5.977 5.391-.1.555-.16 1.117-.24 1.676v9.214c.044.299.109.596.129.896.127 1.912.913 3.55 2.17 4.657l8.84 8.839c4.337.03 8.675-.185 13.007-.648a6.919 6.919 0 006.146-6.146z" fill="url(#paint3_linear)"/><path d="M37.35 31.203a6.92 6.92 0 01-6.147 6.146c-4.33.462-8.67.678-13.007.648L9.37 29.17c1.024.896 2.357 1.441 3.905 1.5 3.83.143 7.673.14 11.502.002 3.464-.126 5.971-2.69 6.08-6.153.114-3.678.114-7.366 0-11.044-.05-1.598-.611-3.004-1.541-4.068l8.68 8.68c.034 4.373-.18 8.748-.647 13.115z" fill="url(#paint4_linear)"/><path d="M23.484 14.885a6.087 6.087 0 10-8.599 8.599l14.082 14.082c.746-.065 1.491-.137 2.236-.217a6.92 6.92 0 006.146-6.146c.08-.745.152-1.49.217-2.236L23.484 14.885z" fill="url(#paint5_linear)"/><path d="M37.926 23.093L26.593 11.76a1.448 1.448 0 10-2.027 2.027l13.158 13.158c.09-1.284.157-2.567.202-3.852z" fill="url(#paint6_linear)"/><path d="M7.057 14.391c.08-.559.14-1.121.24-1.676.57-3.143 2.796-5.281 5.977-5.39 3.831-.133 7.673-.14 11.503-.002 3.463.125 5.97 2.69 6.08 6.153.114 3.678.114 7.365 0 11.044-.11 3.464-2.616 6.027-6.08 6.152-3.83.139-7.673.142-11.502-.002-3.464-.13-5.858-2.7-6.09-6.169-.02-.3-.084-.597-.128-.896V14.39zM19.003 28.62c1.753 0 3.508.053 5.258-.012 2.745-.102 4.433-1.74 4.497-4.482.08-3.416.08-6.838 0-10.255-.064-2.741-1.753-4.417-4.497-4.476a248.173 248.173 0 00-10.45 0c-2.723.057-4.416 1.7-4.49 4.411-.094 3.46-.094 6.926 0 10.386.074 2.71 1.767 4.315 4.49 4.416 1.729.065 3.461.012 5.192.012z" fill="url(#paint7_linear)"/><path d="M7.057 14.391c.08-.559.14-1.121.24-1.676.57-3.143 2.796-5.281 5.977-5.39 3.831-.133 7.673-.14 11.503-.002 3.463.125 5.97 2.69 6.08 6.153.114 3.678.114 7.365 0 11.044-.11 3.464-2.616 6.027-6.08 6.152-3.83.139-7.673.142-11.502-.002-3.464-.13-5.858-2.7-6.09-6.169-.02-.3-.084-.597-.128-.896V14.39zM19.003 28.62c1.753 0 3.508.053 5.258-.012 2.745-.102 4.433-1.74 4.497-4.482.08-3.416.08-6.838 0-10.255-.064-2.741-1.753-4.417-4.497-4.476a248.173 248.173 0 00-10.45 0c-2.723.057-4.416 1.7-4.49 4.411-.094 3.46-.094 6.926 0 10.386.074 2.71 1.767 4.315 4.49 4.416 1.729.065 3.461.012 5.192.012z" fill="#fff"/><path d="M19 12.914a6.086 6.086 0 100 12.173 6.086 6.086 0 000-12.173zm0 10.077a3.991 3.991 0 110-7.982 3.991 3.991 0 010 7.982zm7.89-10.355a1.448 1.448 0 11-2.896 0 1.448 1.448 0 012.896 0z" fill="#fff"/></g><defs><linearGradient id="paint1_linear" x1="14.575" y1="16.511" x2="-49.802" y2="-19.701" gradientUnits="userSpaceOnUse"><stop stop-color="#A1B5D8" stop-opacity="0"/><stop offset=".309" stop-color="#90A2BD" stop-opacity=".31"/><stop offset=".755" stop-color="#7C8B9C" stop-opacity=".757"/><stop offset="1" stop-color="#748290"/></linearGradient><linearGradient id="paint2_linear" x1="19" y1="33.545" x2="19" y2="39.468" gradientUnits="userSpaceOnUse"><stop stop-color="#FAE100" stop-opacity="0"/><stop offset=".307" stop-color="#FCA800" stop-opacity=".306"/><stop offset=".627" stop-color="#FE7300" stop-opacity=".627"/><stop offset=".869" stop-color="#FF5200" stop-opacity=".867"/><stop offset="1" stop-color="#FF4500"/></linearGradient><linearGradient id="paint3_linear" x1="16.838" y1="16.784" x2="7.434" y2="7.38" gradientUnits="userSpaceOnUse"><stop stop-color="#833AB4" stop-opacity="0"/><stop offset="1" stop-color="#833AB4"/></linearGradient><linearGradient id="paint4_linear" x1="26.043" y1="34.755" x2="21.349" y2="12.627" gradientUnits="userSpaceOnUse"><stop stop-color="#833AB4" stop-opacity="0"/><stop offset="1" stop-color="#833AB4"/></linearGradient><linearGradient id="paint5_linear" x1="27.829" y1="27.829" x2="8.976" y2="8.976" gradientUnits="userSpaceOnUse"><stop stop-color="#833AB4" stop-opacity="0"/><stop offset="1" stop-color="#833AB4"/></linearGradient><linearGradient id="paint6_linear" x1="29.228" y1="16.422" x2="22.994" y2="10.188" gradientUnits="userSpaceOnUse"><stop stop-color="#833AB4" stop-opacity="0"/><stop offset="1" stop-color="#833AB4"/></linearGradient><linearGradient id="paint7_linear" x1="26.545" y1="11.508" x2="11.173" y2="26.879" gradientUnits="userSpaceOnUse"><stop stop-color="#833AB4"/><stop offset=".092" stop-color="#9C3495"/><stop offset=".293" stop-color="#DC2546"/><stop offset=".392" stop-color="#FD1D1D"/><stop offset=".559" stop-color="#FC6831"/><stop offset=".689" stop-color="#FC9B40"/><stop offset=".752" stop-color="#FCAF45"/><stop offset=".781" stop-color="#FDB750"/><stop offset=".866" stop-color="#FECB6A"/><stop offset=".942" stop-color="#FFD87A"/><stop offset="1" stop-color="#FFDC80"/></linearGradient><radialGradient id="paint0_radial" cx="0" cy="0" r="1" gradientUnits="userSpaceOnUse" gradientTransform="translate(7.79 33.209) scale(41.9073)"><stop stop-color="#FAE100"/><stop offset=".054" stop-color="#FADC04"/><stop offset=".117" stop-color="#FBCE0E"/><stop offset=".183" stop-color="#FCB720"/><stop offset=".251" stop-color="#FE9838"/><stop offset=".305" stop-color="#FF7950"/><stop offset=".492" stop-color="#FF1C74"/><stop offset="1" stop-color="#6C1CD1"/></radialGradient></defs></svg>
